X: 2432
T: The NIGGER IN THE WOOD PILE
R: Jig.
B: Kerr's v.2 p.49 #432
Z: 2016 John Chambers <jc:trillian.mit.edu>
M: C
%%slurgraces no
%%graceslurs no
L: 1/8
K: D
{^G}A2 |\
zAFD E2D2 | zdfd ed z{c}d |\
zAFD E2DF | G>BA>F D2{^G}A2 |\
zAFD E2D2 |
zdfd ed z{c}d |\
zAFD E2DF | G>BA>F D2 ::\
(3(ABd) |\
d2e2 f2g2 | fB~B2 fB~B2 |\
d2e2 f2^g2 |
a>ef>d c>eA2 |\
d2e2 f2g2 | fB~B2 fB~B2 |\
a>bg>a f>ge>c |[1 d>fe>d cA :|[2 d>BA>G FD |]

%%sep 1 1 500
%%sep 1 1 500

